X:1
T:Title
%%score { ( 1 4 ) | ( 2 3 ) }
L:1/8
M:6/8
K:Ab
V:1 treble nm="Grand Piano"
V:4 treble 
V:2 bass 
V:3 bass 
V:1
 z3 z2[Q:1/4=100] [A,CE] | [A,CE]2 [CEA] [FA][EG][DF] | [DF] [CE]2- [CE]2 [CE] | %3
 [CE]2 [CA] [EA][DG][A,CA] |[M:5/8] [EB]-[EB]- [EB]3 |[M:1/8] [DE] |[M:3/4] [CE]2 [Ec]c B[EA] | %7
 BA- A3 F | EA A c2 B |[M:5/8] [CA]-[CA]- [CA]3 |[M:1/8] e |[M:3/4] ec cc Bc | [Fd][Fd]- [Fd]3 c | %13
 BB BB AB |[M:5/8] [Ec]-[Ec]- [Ec]3 |[M:1/8] [Ee] |[M:3/4] [Ee][Ec] [Ec][Ec] [EB][EA] | %17
 [DA][DF]- [DF]3 [Fd] | cB A B2 G |[M:5/8] [CA]-[CA]- [CA]3 |] %20
V:2
 z3 z2 A,, | A,,2 A,, [D,D]2 [D,A,] | [A,,A,] [A,,A,]2- [A,,A,]2 [A,,A,] | z3 .E,3 | %4
[M:5/8] [E,G,]-[E,G,]- [E,G,]3 |[M:1/8] [E,G,] |[M:3/4] [A,,A,]2 [A,,A,][A,,A,] [B,,G,][C,A,] | %7
 [D,F,D][D,F,D]- [D,F,D]3 [D,A,D] | [E,A,C]2 [E,A,C] [E,A,E]2 [E,G,D] | %9
[M:5/8] [A,,A,]-[A,,A,]- [A,,A,]3 |[M:1/8][K:treble] [A,CA] | %11
[M:3/4] [A,CA][A,E] [A,E][A,E][K:bass] [A,D][A,E] | [D,A,][D,A,]- [D,A,]3 [E,A,E] | %13
 [E,G,E][E,G,E] [E,G,E][E,G,E] [E,F,E][E,G,E] |[M:5/8] [A,,A,]-[A,,A,]- [A,,A,]3 |[M:1/8] [A,,C] | %16
[M:3/4] [A,,C][A,,A,] [A,,A,][A,,A,] [B,,G,][C,A,] | [D,F,][D,A,]- [D,A,]3 [D,A,] | %18
 [E,A,E][E,G,D] [E,A,C] [E,G,D]2 [E,D] |[M:5/8] [A,,E,]-[A,,E,]- [A,,E,]3 |] %20
V:3
 x6 | x6 | x6 | [A,,A,]2 [A,,E,] C,B,,A,, |[M:5/8] x5 |[M:1/8] x |[M:3/4] x6 | x6 | x6 | %9
[M:5/8] x5 |[M:1/8][K:treble] x |[M:3/4] x4[K:bass] x2 | x6 | x6 |[M:5/8] x5 |[M:1/8] x | %16
[M:3/4] x6 | x6 | x6 |[M:5/8] x5 |] %20
V:4
 x6 | x6 | x6 | x6 |[M:5/8] x5 |[M:1/8] x |[M:3/4] z2 z .E3 | x6 | x6 |[M:5/8] x5 |[M:1/8] x | %11
[M:3/4] x6 | x6 | x6 |[M:5/8] x5 |[M:1/8] x |[M:3/4] x6 | x6 | x6 |[M:5/8] x5 |] %20

